X:1
T:Karnavals Pot Pourri 132
T: Laukens Music Productions  
T:KARNAVALS POTPOURRI 132
T:Mars
T:Arr. H. laukens
T:2
T:KARNAVALS POTPOURRI 132 blad 2 van 
T: Laukens Music Productions  
T:3
T:KARNAVALS POTPOURRI 132 blad 3 van 
T: Laukens Music Productions  
T:4
T:KARNAVALS POTPOURRI 132 blad 4 van 
T: Laukens Music Productions  
C:Traditional
Z:All Rights Reserved
L:1/8
Q:1/4=165
M:4/4
K:F
V:1 treble nm="MusicXML Part"
%%MIDI program 0
%%MIDI control 7 102
%%MIDI control 10 64
V:1
"C7" z C CC C2"^He's got the whole world in his hands" C2 | E2 G2 cc cA ||"F" c4 A F3 | %3
 c d2 c- cc cA |"C7" B2 B2 G E3 | c d2 c- cA AB |"F" c4 A F3 | c d2 c- cc cA |"C7" c2 c2 B2 G2 | %9
"F" F4 z c cA | c2 c2 A F3 | c d2 c- cc cA |"C7" B2 B2 G E3 | c d2 c- cA AB |"F" c2 c2 A F3 | %15
 c d2 c- cc cA |"C7" c2 c2 B2 G2 |"F" F8- | F8 ||[K:C][M:2/2]"C""^Roll out the Barrel" G8 | %20
 G6 ^F2 | G2 A6- | A8 | G2 A4 G2 | A2 G4 ^F2 |"G7" F8- | F8 |"Dm" A8 | A6 ^G2 |"G7" A2 B6- | B8 | %31
 A2 B4 A2 | B2 A4 ^G2 |"C" G4 G3 A |"G7" G2 F2 E2 D2 |"C" G8 | G6 ^F2 | G2 A6- | A8 | G2 A4 G2 | %40
"C7" A2 G4 E2 |"F" A8- | A8 |"G7" D2 E2 F2 G2 | B6 A2 |"C" A2 G6- | G4 ^F2 G2 |"D7" A8 |"G7" B8 | %49
"C" c8- | c2 z2 E2 D2 ||[M:4/4]"C""^Happy days are here again" C4 E2 E2- | E2 G4 ^F2 | G4 c2 c2- | %54
 c2 e4 ^d2 | e4 c2 c2- | c2 G4 A2 | G4 E2 E2- | E2 e4 _e2 |"G7" d4 B2 B2- | B2 G4 A2 | G4 F2 F2- | %62
 F2 d4 e2 |"C" c4 c4 |"F" c4 c4 |"C" c8- | c4 c4 |"B7" B6 ^F2 | ^F2 ^G4 A2 |"Em" B6 c2 |"D7" d8- | %71
 d6 A2 | A2 B4 c2 |"Dm7" d8- |"G7" d2 z2 E2 D2 |"C" C4 E2 E2- | E2 G4 ^F2 | G4 c2 c2- | c2 e4 ^d2 | %79
 e4 c2 c2- | c2 G4 A2 | G4 E2 E2- | E2 e4 _e2 |"G7" d4 B2 B2- | B2 G4 A2 | G4 F2 F2- | F2 d4 e2 | %87
"C" c4 c4 |"F" c4 c4 |"C" c8- | c8 ||"C""^Smile" G4 G3 A | G2 F2 E2 F2 | G4 e4 | e4"C+" d4 | %95
"F" c8 |"Cdim" A8 |"C" G8- | G8 | G4 G3 A | G2 F2 E2 F2 | G4 e4 | c4 c4 |"D7" d4 A4 | B4 c4 | %105
"G7" d8- | d6 z2 |"Am" c6 d2 | e4 c4 |"E7" B2 c2 d4- | d4"A7" e4 |"Dm" f4 d4 |"D7" e4 c4 | %113
"G7" d8- | d8 |"C" G4 G3 A | G2 F2 E2 F2 |"A7" G4 g4 | g4 f4 |"D7" e8 |"G7" d8 |"C" c8- | c8- | %123
 c2 E2 E2 F2 ||"C""^It's a long way to Tipparary" G4 G4- | G2 G2 A2 B2 | c4 e4- | e4"C+" d4 | %128
"F" c4 A4- | A4 c4 |"C" G8- | G2 G2 E2 F2 | G4 G4- | G2 G2 A2 B2 | c4 e4- | e4 d4 |"D7" c4 A4 | %137
 B4 c4 |"G7" d8- | d8 |"C" G4 G4- | G2 G2 A2 B2 | c4 e4- | e4"C7" e4 |"F" f4 f4 |"Fm" c4 d4 | %146
"C" e8- | e2 c2 c2 d2 | e4 e4- | e2 c2 d2 c2 |"Cdim" A8 |"C" G2 c2 c2 d2 |"D7" e4 c4- | c4"G7" d4 | %154
"C" c8- | c2 z2"G7" G4 ||[M:6/8]"C""^Lilly the pink" E3 E3- | E2 G G F E |"G7" D3 D3- | D2 D D2 E | %160
 F3 F3- | F2 A G2 F |"C" E2 c G3- | G2 G"G7" G2 F |"C" E3 E3- | E2 G G F E |"G7" D3 D3- | %167
 D2 D D2 E | F3 F3- | F2 F E2 D |"C" C z z"G7" G3 |"C" E2 E E2 E | E2 G G F E |"G7" D2 D D2 D | %174
 D2 D D2 E | F3 F3- | F2 A G2 F |"C" E2 c G3- | G2 G"G7" G2 F |"C" E3 E3- | E2 G G F E | %181
"G7" D3 D3- | D2 D D2 E | F3 F3- | F2 F E2 D |"C" C2 G A G E | C2 c c2 A || %187
[K:F][M:4/4]"F""^He's got the whole world in his hands" c4 A F3 | c d2 c- cc cA |"C7" B2 B2 G E3 | %190
 c d2 c- cA AB |"F" c4 A F3 | c d2 c- cc cA |"C7" c2 c2 B2 G2 |"F" F4 z c cA | c2 c2 A F3 | %196
 c d2 c- cc cA |"C7" B2 B2 G E3 | c d2 c z A AB |"F" c2 c2 A F3 | c d2 c- cc cA |"C7" c2 c2 B2 G2 | %202
"F" F8- | F8 |] %204

